imgsrc/merge.svg

<?xml version="1.0" encoding="UTF-8" standalone="no"?>
<!-- Created with Inkscape (http://www.inkscape.org/) -->

<svg
   xmlns:dc="http://purl.org/dc/elements/1.1/"
   xmlns:cc="http://creativecommons.org/ns#"
   xmlns:rdf="http://www.w3.org/1999/02/22-rdf-syntax-ns#"
   xmlns:svg="http://www.w3.org/2000/svg"
   xmlns="http://www.w3.org/2000/svg"
   xmlns:sodipodi="http://sodipodi.sourceforge.net/DTD/sodipodi-0.dtd"
   xmlns:inkscape="http://www.inkscape.org/namespaces/inkscape"
   width="128"
   height="128"
   viewBox="0 0 128 128"
   id="svg2"
   version="1.1"
   inkscape:version="0.92.2 5c3e80d, 2017-08-06"
   sodipodi:docname="merge.svg">
  <defs
     id="defs4" />
  <sodipodi:namedview
     id="base"
     pagecolor="#ffffff"
     bordercolor="#666666"
     borderopacity="1.0"
     inkscape:pageopacity="0.0"
     inkscape:pageshadow="2"
     inkscape:zoom="2.52183"
     inkscape:cx="62.820239"
     inkscape:cy="64.179354"
     inkscape:document-units="px"
     inkscape:current-layer="g836"
     showgrid="false"
     units="px"
     showguides="true"
     inkscape:guide-bbox="true"
     inkscape:window-width="1366"
     inkscape:window-height="694"
     inkscape:window-x="0"
     inkscape:window-y="48"
     inkscape:window-maximized="1"
     inkscape:snap-bbox="true">
    <inkscape:grid
       type="xygrid"
       id="grid4136"
       empspacing="4" />
    <sodipodi:guide
       position="8,140"
       orientation="1,0"
       id="guide4138"
       inkscape:label="Margin Left"
       inkscape:color="rgb(0,0,255)"
       inkscape:locked="false" />
    <sodipodi:guide
       position="120,140"
       orientation="1,0"
       id="guide4140"
       inkscape:label="Margin Right"
       inkscape:color="rgb(0,0,255)"
       inkscape:locked="false" />
    <sodipodi:guide
       position="-20,120"
       orientation="0,1"
       id="guide4142"
       inkscape:label="Margin Top"
       inkscape:color="rgb(0,0,255)"
       inkscape:locked="false" />
    <sodipodi:guide
       position="-16,8"
       orientation="0,1"
       id="guide4144"
       inkscape:label="Margin Bottom"
       inkscape:color="rgb(0,0,255)"
       inkscape:locked="false" />
    <sodipodi:guide
       position="8,8"
       orientation="-0.70710678,0.70710678"
       id="guide4146"
       inkscape:locked="false" />
    <sodipodi:guide
       position="72,56"
       orientation="0.70710678,0.70710678"
       id="guide4148"
       inkscape:locked="false" />
    <sodipodi:guide
       position="20,140"
       orientation="1,0"
       id="guide4150"
       inkscape:label="Rectangle Left"
       inkscape:color="rgb(0,0,255)"
       inkscape:locked="false" />
    <sodipodi:guide
       position="108,140"
       orientation="1,0"
       id="guide4152"
       inkscape:label="Rectangle Right"
       inkscape:color="rgb(0,0,255)"
       inkscape:locked="false" />
    <sodipodi:guide
       position="-20,116"
       orientation="0,1"
       id="guide4154"
       inkscape:label="Shadow Top"
       inkscape:color="rgb(0,0,255)"
       inkscape:locked="false" />
    <sodipodi:guide
       position="-16,12"
       orientation="0,1"
       id="guide4156"
       inkscape:label="Shadow Bottom"
       inkscape:color="rgb(0,0,255)"
       inkscape:locked="false" />
    <sodipodi:guide
       position="-20,104"
       orientation="0,1"
       id="guide4158"
       inkscape:label="Rectangle Top"
       inkscape:color="rgb(0,0,255)"
       inkscape:locked="false" />
    <sodipodi:guide
       position="-16,24"
       orientation="0,1"
       id="guide4160"
       inkscape:label="Rectangle Bottom"
       inkscape:color="rgb(0,0,255)"
       inkscape:locked="false" />
  </sodipodi:namedview>
  <metadata
     id="metadata7">
    <rdf:RDF>
      <cc:Work
         rdf:about="">
        <dc:format>image/svg+xml</dc:format>
        <dc:type
           rdf:resource="http://purl.org/dc/dcmitype/StillImage" />
        <dc:title></dc:title>
      </cc:Work>
    </rdf:RDF>
  </metadata>
  <g
     inkscape:label="Layer 1"
     inkscape:groupmode="layer"
     id="layer1"
     transform="translate(0,-924.36216)">
    <g
       id="g836"
       transform="matrix(4,0,0,4,-8e-4,922.36216)">
      <rect
         id="rect2"
         transform="matrix(0,-1,-1,0,0,0)"
         ry="1.4"
         rx="1.4"
         y="-30"
         x="-30"
         height="28"
         width="28"
         style="fill:#f58411" />
      <path
         id="path4"
         d="M 3.4004,2 C 2.6248,2 2,2.6248 2,3.4004 v 1 C 2,3.6248 2.6248,3 3.4004,3 h 25.2 c 0.775,0 1.4,0.6248 1.4,1.4004 v -1 C 30.0004,2.6248 29.3754,2 28.6004,2 Z"
         inkscape:connector-curvature="0"
         style="opacity:0.2;fill:#ffffff" />
      <path
         id="path6"
         d="m 2,28.6 v 1 C 2,30.375 2.6248,31 3.4004,31 h 25.2 c 0.775,0 1.4,-0.625 1.4,-1.4 v -1 c 0,0.775 -0.625,1.4 -1.4,1.4 h -25.2 c -0.7752,0 -1.4,-0.625 -1.4,-1.4 z"
         inkscape:connector-curvature="0"
         style="opacity:0.2" />
      <g
         id="g984"
         transform="rotate(-180,15.499975,16.5)">
        <g
           style="opacity:0.2;enable-background:new"
           transform="translate(-620,-519)"
           id="g10">
          <path
             inkscape:connector-curvature="0"
             d="m 17,8 c -1.6568,0 -3,1.3432 -3,3 0,0.23127 0.04425,0.44001 0.09375,0.65625 l -3.2188,2 c -0.513,-0.411 -1.1659,-0.656 -1.875,-0.656 -1.6568,0 -3,1.3432 -3,3 0,1.6568 1.3432,3 3,3 0.70904,0 1.3615,-0.24498 1.875,-0.65625 l 3.2188,2 c -0.05,0.216 -0.094,0.425 -0.094,0.656 0,1.6568 1.3432,3 3,3 1.6568,0 3,-1.3432 3,-3 0,-1.6568 -1.3432,-3 -3,-3 -0.70904,0 -1.3615,0.24498 -1.875,0.65625 l -3.2188,-2 c 0.05,-0.216 0.094,-0.425 0.094,-0.656 0,-0.231 -0.044,-0.44 -0.094,-0.656 l 3.2188,-2 c 0.513,0.411 1.166,0.656 1.875,0.656 1.6568,0 3,-1.3432 3,-3 0,-1.6568 -1.3432,-3 -3,-3 z m 7,0 a 3,3 0 0 0 -3,3 3,3 0 0 0 3,3 3,3 0 0 0 3,-3 3,3 0 0 0 -3,-3 z m 0,10 a 3,3 0 0 0 -3,3 3,3 0 0 0 3,3 3,3 0 0 0 3,-3 3,3 0 0 0 -3,-3 z"
             transform="translate(619,520)"
             id="path8" />
        </g>
        <g
           style="fill:#ffffff;enable-background:new"
           transform="translate(-620,-520)"
           id="g14">
          <path
             inkscape:connector-curvature="0"
             d="m 17,8 c -1.6568,0 -3,1.3432 -3,3 0,0.23127 0.04425,0.44001 0.09375,0.65625 l -3.2188,2 c -0.513,-0.411 -1.1659,-0.656 -1.875,-0.656 -1.6568,0 -3,1.3432 -3,3 0,1.6568 1.3432,3 3,3 0.70904,0 1.3615,-0.24498 1.875,-0.65625 l 3.2188,2 c -0.05,0.216 -0.094,0.425 -0.094,0.656 0,1.6568 1.3432,3 3,3 1.6568,0 3,-1.3432 3,-3 0,-1.6568 -1.3432,-3 -3,-3 -0.70904,0 -1.3615,0.24498 -1.875,0.65625 l -3.2188,-2 c 0.05,-0.216 0.094,-0.425 0.094,-0.656 0,-0.231 -0.044,-0.44 -0.094,-0.656 l 3.2188,-2 c 0.513,0.411 1.166,0.656 1.875,0.656 1.6568,0 3,-1.3432 3,-3 0,-1.6568 -1.3432,-3 -3,-3 z m 7,0 a 3,3 0 0 0 -3,3 3,3 0 0 0 3,3 3,3 0 0 0 3,-3 3,3 0 0 0 -3,-3 z m 0,10 a 3,3 0 0 0 -3,3 3,3 0 0 0 3,3 3,3 0 0 0 3,-3 3,3 0 0 0 -3,-3 z"
             transform="translate(619,520)"
             id="path12" />
        </g>
      </g>
    </g>
  </g>
</svg>

<svg xmlns="http://www.w3.org/2000/svg" width="32" height="32" version="1.1" viewBox="0 0 32 32">
 <g transform="translate(0,-1020.4)">
  <g transform="matrix(4,0,0,4,-8e-4,922.36)">
   <g transform="matrix(0.25,0,0,0.25,1.375e-4,24.375)">
    <rect style="fill:#f58411" width="28" height="28" x="-30" y="-30" rx="1.4" ry="1.4" transform="matrix(0,-1,-1,0,0,0)"/>
    <path style="opacity:0.2;fill:#ffffff" d="M 3.4004,2 C 2.6248,2 2,2.6248 2,3.4004 V 4.4004 C 2,3.6248 2.6248,3 3.4004,3 H 28.6 C 29.375,3 30,3.6248 30,4.4004 V 3.4004 C 30,2.6248 29.375,2 28.6,2 Z"/>
    <path style="opacity:0.2" d="M 2,28.6 V 29.6 C 2,30.375 2.6248,31 3.4004,31 H 28.6 C 29.375,31 30,30.375 30,29.6 V 28.6 C 30,29.375 29.375,30 28.6,30 H 3.4004 C 2.6252,30 2.0004,29.375 2.0004,28.6 Z"/>
    <g transform="rotate(-180,15.5,16.5)">
     <g style="opacity:0.2;enable-background:new" transform="translate(-620,-519)">
      <path d="M 17,8 C 15.343,8 14,9.3432 14,11 14,11.231 14.044,11.44 14.094,11.656 L 10.875,13.656 C 10.362,13.245 9.709,13 9,13 7.3431,13 6,14.343 6,16 6,17.657 7.3431,19 9,19 9.709,19 10.361,18.755 10.875,18.344 L 14.094,20.344 C 14.044,20.56 14,20.769 14,21 14,22.657 15.343,24 17,24 18.657,24 20,22.657 20,21 20,19.343 18.657,18 17,18 16.291,18 15.638,18.245 15.125,18.656 L 11.906,16.656 C 11.956,16.44 12,16.231 12,16 12,15.769 11.956,15.56 11.906,15.344 L 15.125,13.344 C 15.638,13.755 16.291,14 17,14 18.657,14 20,12.657 20,11 20,9.3435 18.657,8.0003 17,8.0003 Z M 24,8 A 3,3 0 0 0 21,11 3,3 0 0 0 24,14 3,3 0 0 0 27,11 3,3 0 0 0 24,8 Z M 24,18 A 3,3 0 0 0 21,21 3,3 0 0 0 24,24 3,3 0 0 0 27,21 3,3 0 0 0 24,18 Z" transform="translate(619,520)"/>
     </g>
     <g style="fill:#ffffff;enable-background:new" transform="translate(-620,-520)">
      <path d="M 17,8 C 15.343,8 14,9.3432 14,11 14,11.231 14.044,11.44 14.094,11.656 L 10.875,13.656 C 10.362,13.245 9.709,13 9,13 7.3431,13 6,14.343 6,16 6,17.657 7.3431,19 9,19 9.709,19 10.361,18.755 10.875,18.344 L 14.094,20.344 C 14.044,20.56 14,20.769 14,21 14,22.657 15.343,24 17,24 18.657,24 20,22.657 20,21 20,19.343 18.657,18 17,18 16.291,18 15.638,18.245 15.125,18.656 L 11.906,16.656 C 11.956,16.44 12,16.231 12,16 12,15.769 11.956,15.56 11.906,15.344 L 15.125,13.344 C 15.638,13.755 16.291,14 17,14 18.657,14 20,12.657 20,11 20,9.3435 18.657,8.0003 17,8.0003 Z M 24,8 A 3,3 0 0 0 21,11 3,3 0 0 0 24,14 3,3 0 0 0 27,11 3,3 0 0 0 24,8 Z M 24,18 A 3,3 0 0 0 21,21 3,3 0 0 0 24,24 3,3 0 0 0 27,21 3,3 0 0 0 24,18 Z" transform="translate(619,520)"/>
     </g>
    </g>
   </g>
  </g>
 </g>
</svg>
